X: 1
T: The Fit's Come On Me Now (G)
O: 1686
R: slipjig
B: Barnes
Z: 2005 John Chambers <jc@trillian.mit.edu>
M: 9/8
L: 1/8
K: G
|: "G"G2d BGd "C"e2d |  "G"G2d BGd "D"g2d |  "G"G2d BGd "C"e2f | "G"gde dBG "D7"A2G :|
|: "G"g2d gdg "D"a2b | "G"g2d gba "D"a2d | "G"g2d gdg "D"a2b | "G"gde dBG "D7"A2G :|
